antibot/app/images/dist/main-icon.svg

<svg width="82" height="79" viewBox="0 0 82 79" fill="none" xmlns="http://www.w3.org/2000/svg">
<path d="M0 14.5602C0 6.60726 6.4471 0.160156 14.4 0.160156H67.6C75.5529 0.160156 82 6.60726 82 14.5602V63.7602C82 71.7131 75.5529 78.1602 67.6 78.1602H14.4C6.4471 78.1602 0 71.7131 0 63.7602V14.5602Z" fill="#57B36E" fill-opacity="0.1"/>
<g clip-path="url(#clip0_56_7054)">
<g clip-path="url(#clip1_56_7054)">
<g clip-path="url(#clip2_56_7054)">
<mask id="mask0_56_7054" style="mask-type:luminance" maskUnits="userSpaceOnUse" x="19" y="16" width="44" height="50">
<path d="M62.0374 16.0205H19.7178V65.9579H62.0374V16.0205Z" fill="white"/>
</mask>
<g mask="url(#mask0_56_7054)">
<path d="M59.7465 49.3378C58.4017 52.9938 56.4228 56.1736 53.7332 58.723C50.73 61.6646 46.7721 64.0529 42.0269 65.7198C41.8667 65.7969 41.7134 65.7969 41.5531 65.8809C41.3162 65.9579 41.0793 65.9579 40.919 65.9579H40.8424C40.6055 65.9579 40.3686 65.9579 40.1316 65.8809C39.9714 65.8809 39.8181 65.8039 39.6578 65.7198C34.9126 64.0529 30.9548 61.6646 27.9516 58.723C25.262 56.1806 23.2831 53.0008 21.9382 49.3378C19.4785 42.7402 19.6388 35.4212 19.7921 29.615V29.5379C19.7921 29.0617 19.7921 28.5854 19.8687 27.9481C19.7921 25.2446 22.0079 22.9403 24.7812 22.7792C30.474 22.464 34.9057 20.552 38.7032 16.896C39.3373 16.3357 40.1247 16.0205 40.919 16.0205C41.7134 16.0205 42.4241 16.3357 43.0582 16.896C46.8488 20.629 51.2804 22.464 56.9733 22.7792C59.7396 22.9403 61.8787 25.2446 61.9554 27.9481C61.9554 28.5014 61.9554 28.9846 62.032 29.5379C62.039 35.4212 62.1993 42.7402 59.7465 49.3378Z" fill="#57B36E"/>
</g>
<mask id="mask1_56_7054" style="mask-type:luminance" maskUnits="userSpaceOnUse" x="19" y="16" width="44" height="50">
<path d="M62.0374 16.0205H19.7178V65.9579H62.0374V16.0205Z" fill="white"/>
</mask>
<g mask="url(#mask1_56_7054)">
<path d="M59.7432 49.3378C58.3957 52.9938 56.4128 56.1736 53.7178 58.723C50.7086 61.6646 46.7428 64.0529 41.9881 65.7198C41.8275 65.7969 41.6739 65.7969 41.5133 65.8809C41.2759 65.9579 41.0385 65.9579 40.8779 65.9579V16.0205C41.6739 16.0205 42.386 16.3357 43.0214 16.896C46.8196 20.636 51.2601 22.464 56.9644 22.7792C59.7363 22.9403 61.8797 25.2446 61.9565 27.9481C61.9565 28.5014 61.9565 28.9846 62.0333 29.5379C62.0403 35.4212 62.2009 42.7402 59.7432 49.3378Z" fill="#57B36E"/>
</g>
<path d="M52.728 40.9896C52.728 47.7531 47.2359 53.2623 40.4933 53.2623H40.4173C33.6748 53.2623 28.1826 47.7531 28.1826 40.9896C28.1826 34.226 33.6748 28.7168 40.4173 28.7168H40.4933C47.2359 28.7168 52.728 34.226 52.728 40.9896Z" fill="white"/>
<path d="M52.7284 41.031C52.7284 47.7717 47.4092 53.2623 40.8789 53.2623V28.7168C47.4092 28.7997 52.7284 34.2903 52.7284 41.031Z" fill="#E1EBF0"/>
<path d="M49.0188 40.5662C48.8575 40.5662 48.7033 40.4023 48.7033 40.2454V39.4327C48.7033 35.3051 45.3594 31.9046 41.3005 31.9046C37.2416 31.9046 33.8907 35.3051 33.8907 39.4327V40.2454C33.8907 40.4094 33.7295 40.5662 33.5752 40.5662C33.414 40.5662 33.2598 40.4023 33.2598 40.2454V39.4327C33.2598 34.8987 36.842 31.2559 41.3005 31.2559C45.759 31.2559 49.3412 34.8987 49.3412 39.4327V40.2454C49.3342 40.4878 49.173 40.5662 49.0188 40.5662Z" fill="#848484"/>
<path d="M48.1221 43.952H47.1761C46.9853 43.952 46.8027 43.7709 46.8027 43.5977C46.8027 43.4166 46.9936 43.2434 47.1761 43.2434H48.1221C48.4042 43.2434 48.5951 43.0623 48.5951 42.7946V40.9207C48.5951 40.7396 48.7859 40.5664 48.9685 40.5664C49.1511 40.5664 49.3419 40.7475 49.3419 40.9207V42.7946C49.2506 43.5032 48.7859 43.952 48.1221 43.952Z" fill="#848484"/>
<path d="M38.3359 43.9521H42.5679V47.3377H38.3359V43.9521Z" fill="#CBCBCB"/>
<path d="M46.7263 43.2464C46.8004 43.0065 46.8004 42.7667 46.8004 42.4423V36.9971C46.8004 35.2338 45.4257 33.7949 43.741 33.7949H37.1639C35.4792 33.7949 34.1045 35.2338 34.1045 36.9971V42.4423C34.1045 44.2056 35.4792 45.6445 37.1639 45.6445H43.8218C44.5901 45.6445 45.2774 45.3271 45.8098 44.8404" fill="#E5E5E5"/>
<path d="M36.6437 43.6827V45.6448C35.1721 45.3202 34.1045 44.0073 34.1045 42.4492V40.5664C35.5761 40.8982 36.6437 42.1245 36.6437 43.6827Z" fill="#CBCBCB"/>
<path d="M47.6456 40.5664V42.4492C47.6456 42.6944 47.6456 43.019 47.5636 43.2715L46.55 44.909C46.1252 45.2336 45.6184 45.4789 45.1115 45.6448V43.762C45.0221 42.1173 46.1177 40.891 47.6456 40.5664Z" fill="#CBCBCB"/>
<path d="M40.0288 38.45C40.0288 39.5905 39.1322 40.566 37.9129 40.566C36.7724 40.566 35.7969 39.6694 35.7969 38.45C35.7969 37.3095 36.6935 36.334 37.9129 36.334C39.0533 36.4129 40.0288 37.3095 40.0288 38.45Z" fill="white"/>
<path d="M45.9546 38.451C45.9546 39.5914 45.058 40.5669 43.8386 40.5669C42.6193 40.5669 41.7227 39.6703 41.7227 38.451C41.7227 37.3105 42.6193 36.335 43.8386 36.335C45.058 36.3278 45.9546 37.3105 45.9546 38.451Z" fill="white"/>
<path d="M38.3366 38.8735C37.9134 38.8735 37.4902 38.5394 37.4902 38.0271C37.4902 37.5148 37.8243 37.1807 38.3366 37.1807C38.7598 37.1807 39.183 37.5148 39.183 38.0271C39.183 38.5394 38.7598 38.8735 38.3366 38.8735Z" fill="#444444"/>
<path d="M43.4157 38.8735C42.9925 38.8735 42.5693 38.5394 42.5693 38.0271C42.5693 37.5148 42.9034 37.1807 43.4157 37.1807C43.9206 37.1807 44.2621 37.5148 44.2621 38.0271C44.2621 38.5394 43.8389 38.8735 43.4157 38.8735Z" fill="#444444"/>
<path d="M35.7973 43.9564C35.7973 44.4144 35.4702 44.7983 35.08 44.7983H34.8218C34.4316 44.7983 34.1045 44.4144 34.1045 43.9564C34.1045 43.4985 34.4316 43.1146 34.8218 43.1146H35.08C35.4759 43.0405 35.7973 43.4244 35.7973 43.9564Z" fill="#444444"/>
<path d="M40.0293 42.2588H40.8757V45.6444H40.0293V42.2588Z" fill="#7B7B7B"/>
<path d="M40.876 42.2588H41.7224V45.6444H40.876V42.2588Z" fill="#7B7B7B"/>
<path d="M42.5684 42.2588V45.6444H43.4148V43.4965C43.4148 42.8413 43.1101 42.3462 42.5684 42.2588Z" fill="#7B7B7B"/>
<path d="M39.1833 42.2588C38.7229 42.4262 38.3369 42.9213 38.3369 43.4965V45.6444H39.1833V42.2588Z" fill="#7B7B7B"/>
<path d="M34.1046 38.1977V41.242C34.1046 41.7093 33.7907 42.101 33.3094 42.259C33.2326 42.259 33.1489 42.259 32.9955 42.259H32.5978C32.0468 42.259 31.5654 41.7918 31.5654 41.242V38.1977C31.5654 37.6548 32.0398 37.1807 32.5978 37.1807H32.9955C33.0722 37.1807 33.1559 37.1807 33.3094 37.1807C33.7907 37.3387 34.1046 37.7235 34.1046 38.1977Z" fill="#686868"/>
<path d="M34.1049 38.1977V41.242C34.1049 41.7093 33.7708 42.101 33.2585 42.259C32.7536 42.101 32.4121 41.7162 32.4121 41.242V38.1977C32.4121 37.7304 32.7462 37.3387 33.2585 37.1807C33.7708 37.3387 34.1049 37.7235 34.1049 38.1977Z" fill="#7B7B7B"/>
<path d="M50.1866 38.1977V41.242C50.1866 41.7093 49.8727 42.101 49.3914 42.259C49.3147 42.259 49.231 42.259 49.0775 42.259H48.6799C48.1288 42.259 47.6475 41.7918 47.6475 41.242V38.1977C47.6475 37.6548 48.1218 37.1807 48.6799 37.1807H49.0775C49.1542 37.1807 49.2379 37.1807 49.3914 37.1807C49.8727 37.3387 50.1866 37.7235 50.1866 38.1977Z" fill="#686868"/>
<path d="M50.1859 38.1977V41.242C50.1859 41.7093 49.8518 42.101 49.3396 42.259C48.8347 42.101 48.4932 41.7162 48.4932 41.242V38.1977C48.4932 37.7304 48.8273 37.3387 49.3396 37.1807C49.8518 37.3387 50.1859 37.7235 50.1859 38.1977Z" fill="#7B7B7B"/>
<path d="M46.6724 43.1055H46.9306C47.3208 43.1055 47.6479 43.4914 47.6479 43.9519C47.6479 44.4123 47.3208 44.7983 46.9306 44.7983H46.6724C46.2822 44.7983 45.9551 44.4123 45.9551 43.9519C45.9551 43.4914 46.2822 43.1055 46.6724 43.1055Z" fill="#444444"/>
<path d="M32.4121 43.6413V41.7674C32.4121 41.5863 32.603 41.4131 32.7855 41.4131C32.9764 41.4131 33.1589 41.5942 33.1589 41.7674V43.6413C33.1589 43.909 33.3498 44.0901 33.6319 44.0901H34.5779C34.7687 44.0901 34.9513 44.2712 34.9513 44.4444C34.9513 44.6255 34.7604 44.7987 34.5779 44.7987H33.6319C32.9764 44.7987 32.4121 44.2633 32.4121 43.6413Z" fill="#848484"/>
<path d="M47.6471 48.9381L34.9512 49.0294V48.9381C34.9512 47.6188 35.8246 46.4902 37.0124 46.4902H45.6627C46.6898 46.4902 47.6471 47.6188 47.6471 48.9381Z" fill="#CBCBCB"/>
<path d="M46.8003 48.9381L36.6436 49.0294V48.9381C36.6436 47.6188 37.5037 46.4902 38.6735 46.4902H44.846C45.8575 46.4902 46.8003 47.6188 46.8003 48.9381Z" fill="#E5E5E5"/>
<path d="M40.4557 28.7168C33.6994 28.7168 28.208 34.2082 28.208 40.9645C28.208 47.7209 33.6994 53.2123 40.4557 53.2123C47.212 53.2123 52.7034 47.7209 52.7034 40.9645C52.7034 34.2082 47.212 28.7168 40.4557 28.7168ZM40.4557 51.7762C34.5402 51.7762 29.6441 46.9619 29.6441 40.9645C29.6441 38.3453 30.6561 35.808 32.3451 33.8659L47.5543 49.0751C45.5229 50.7642 43.0749 51.7762 40.4557 51.7762ZM48.5662 48.0632L33.3571 32.8539C35.2992 31.1649 37.7472 30.1529 40.4557 30.1529C46.3712 30.1529 51.2673 34.9672 51.2673 40.9645C51.2673 43.5837 50.2553 46.1211 48.5662 48.0632Z" fill="#E84C4F"/>
</g>
</g>
</g>
<defs>
<clipPath id="clip0_56_7054">
<rect width="51.1215" height="59.1096" fill="white" transform="translate(15 12.1602)"/>
</clipPath>
<clipPath id="clip1_56_7054">
<rect width="48.2592" height="62.7373" fill="white" transform="translate(19.7188 5.40332)"/>
</clipPath>
<clipPath id="clip2_56_7054">
<rect width="42.3196" height="55.0158" fill="white" transform="translate(19.7188 16.0205)"/>
</clipPath>
</defs>
</svg>

<svg width="82" height="79" fill="none" xmlns="http://www.w3.org/2000/svg"><path d="M0 14.56C0 6.607 6.447.16 14.4.16h53.2C75.553.16 82 6.607 82 14.56v49.2c0 7.953-6.447 14.4-14.4 14.4H14.4C6.447 78.16 0 71.713 0 63.76v-49.2Z" fill="#57B36E" fill-opacity=".1"/><g clip-path="url(#a)"><g clip-path="url(#b)"><g clip-path="url(#c)"><mask id="d" style="mask-type:luminance" maskUnits="userSpaceOnUse" x="19" y="16" width="44" height="50"><path d="M62.037 16.02h-42.32v49.938h42.32V16.02Z" fill="#fff"/></mask><g mask="url(#d)"><path d="M59.746 49.338c-1.344 3.656-3.323 6.836-6.013 9.385-3.003 2.942-6.96 5.33-11.706 6.997-.16.077-.314.077-.474.16-.237.078-.474.078-.634.078h-.077c-.236 0-.473 0-.71-.077-.16 0-.314-.077-.474-.161-4.745-1.667-8.703-4.055-11.706-6.997-2.69-2.542-4.669-5.722-6.014-9.385-2.46-6.598-2.3-13.917-2.146-19.723v-.077c0-.476 0-.953.077-1.59-.077-2.703 2.139-5.008 4.912-5.169 5.693-.315 10.125-2.227 13.922-5.883.634-.56 1.422-.876 2.216-.876.794 0 1.505.316 2.14.876 3.79 3.733 8.221 5.568 13.914 5.883 2.767.161 4.906 2.466 4.982 5.17 0 .552 0 1.036.077 1.589.007 5.883.167 13.202-2.285 19.8Z" fill="#57B36E"/></g><mask id="e" style="mask-type:luminance" maskUnits="userSpaceOnUse" x="19" y="16" width="44" height="50"><path d="M62.037 16.02h-42.32v49.938h42.32V16.02Z" fill="#fff"/></mask><g mask="url(#e)"><path d="M59.743 49.338c-1.347 3.656-3.33 6.836-6.025 9.385-3.01 2.942-6.975 5.33-11.73 6.997-.16.077-.314.077-.475.16-.237.078-.474.078-.635.078V16.02c.796 0 1.508.316 2.143.876 3.799 3.74 8.24 5.568 13.943 5.883 2.772.161 4.916 2.466 4.992 5.17 0 .552 0 1.036.077 1.589.007 5.883.168 13.202-2.29 19.8Z" fill="#57B36E"/></g><path d="M52.728 40.99c0 6.763-5.492 12.272-12.235 12.272h-.076c-6.742 0-12.234-5.509-12.234-12.272 0-6.764 5.492-12.273 12.234-12.273h.076c6.743 0 12.235 5.509 12.235 12.273Z" fill="#fff"/><path d="M52.728 41.031c0 6.74-5.319 12.231-11.85 12.231V28.717c6.531.083 11.85 5.573 11.85 12.314Z" fill="#E1EBF0"/><path d="M49.019 40.566c-.161 0-.316-.164-.316-.32v-.813c0-4.128-3.344-7.528-7.403-7.528-4.058 0-7.41 3.4-7.41 7.528v.812c0 .164-.16.321-.315.321-.161 0-.315-.164-.315-.32v-.813c0-4.534 3.582-8.177 8.04-8.177 4.459 0 8.041 3.643 8.041 8.177v.812c-.007.243-.168.321-.322.321Z" fill="#848484"/><path d="M48.122 43.952h-.946c-.19 0-.373-.181-.373-.354 0-.181.19-.355.373-.355h.946c.282 0 .473-.18.473-.448V40.92c0-.181.19-.355.373-.355s.374.181.374.355v1.874c-.091.708-.556 1.157-1.22 1.157Z" fill="#848484"/><path d="M38.336 43.952h4.232v3.386h-4.232v-3.386Z" fill="#CBCBCB"/><path d="M46.726 43.246c.074-.24.074-.48.074-.804v-5.445c0-1.763-1.374-3.202-3.059-3.202h-6.577c-1.685 0-3.06 1.439-3.06 3.202v5.445c0 1.764 1.375 3.203 3.06 3.203h6.658c.768 0 1.455-.318 1.988-.805" fill="#E5E5E5"/><path d="M36.644 43.683v1.962a3.253 3.253 0 0 1-2.54-3.196v-1.883c1.472.332 2.54 1.558 2.54 3.117Zm11.002-3.117v1.883c0 .245 0 .57-.082.823l-1.014 1.637c-.425.325-.932.57-1.438.736v-1.883c-.09-1.645 1.006-2.871 2.534-3.196Z" fill="#CBCBCB"/><path d="M40.029 38.45c0 1.14-.897 2.116-2.116 2.116a2.101 2.101 0 0 1-2.116-2.116c0-1.14.897-2.116 2.116-2.116 1.14.079 2.116.975 2.116 2.116Zm5.926.001c0 1.14-.897 2.116-2.116 2.116-1.22 0-2.116-.897-2.116-2.116 0-1.14.896-2.116 2.116-2.116 1.219-.007 2.116.975 2.116 2.116Z" fill="#fff"/><path d="M38.337 38.873a.845.845 0 0 1-.847-.846c0-.512.334-.846.847-.846.423 0 .846.334.846.846a.845.845 0 0 1-.846.846Zm5.079 0a.845.845 0 0 1-.847-.846c0-.512.334-.846.847-.846.505 0 .846.334.846.846a.845.845 0 0 1-.846.846Zm-7.619 5.083c0 .458-.327.842-.717.842h-.258c-.39 0-.718-.384-.718-.842 0-.458.328-.841.718-.841h.258c.396-.075.717.31.717.841Z" fill="#444"/><path d="M40.03 42.259h.846v3.385h-.847V42.26Zm.846 0h.846v3.385h-.846V42.26Zm1.692 0v3.385h.847v-2.148c0-.655-.305-1.15-.847-1.237Zm-3.385 0a1.34 1.34 0 0 0-.846 1.237v2.148h.846V42.26Z" fill="#7B7B7B"/><path d="M34.105 38.198v3.044c0 .467-.314.859-.796 1.017h-.711c-.551 0-1.033-.467-1.033-1.017v-3.044c0-.543.475-1.017 1.033-1.017h.711c.482.158.796.543.796 1.017Z" fill="#686868"/><path d="M34.105 38.198v3.044c0 .467-.334.859-.846 1.017-.505-.158-.847-.543-.847-1.017v-3.044c0-.468.334-.86.846-1.017.513.158.847.543.847 1.017Z" fill="#7B7B7B"/><path d="M50.187 38.198v3.044c0 .467-.314.859-.796 1.017h-.711c-.551 0-1.032-.467-1.032-1.017v-3.044c0-.543.474-1.017 1.032-1.017h.71c.482.158.796.543.796 1.017Z" fill="#686868"/><path d="M50.186 38.198v3.044c0 .467-.334.859-.846 1.017-.505-.158-.847-.543-.847-1.017v-3.044c0-.468.334-.86.847-1.017.512.158.846.543.846 1.017Z" fill="#7B7B7B"/><path d="M46.672 43.105h.259c.39 0 .717.386.717.847 0 .46-.327.846-.717.846h-.259c-.39 0-.717-.386-.717-.846 0-.46.327-.846.717-.846Z" fill="#444"/><path d="M32.412 43.641v-1.874c0-.18.191-.354.373-.354.191 0 .374.181.374.354v1.874c0 .268.19.45.473.45h.946c.19 0 .373.18.373.353 0 .181-.19.355-.373.355h-.946c-.656 0-1.22-.536-1.22-1.158Z" fill="#848484"/><path d="m47.647 48.938-12.696.091v-.09c0-1.32.874-2.449 2.061-2.449h8.65c1.028 0 1.985 1.129 1.985 2.448Z" fill="#CBCBCB"/><path d="m46.8 48.938-10.156.091v-.09c0-1.32.86-2.449 2.03-2.449h6.172c1.012 0 1.954 1.129 1.954 2.448Z" fill="#E5E5E5"/><path d="M40.456 28.717c-6.757 0-12.248 5.491-12.248 12.248 0 6.756 5.491 12.247 12.248 12.247 6.756 0 12.247-5.491 12.247-12.248 0-6.756-5.491-12.247-12.247-12.247Zm0 23.06c-5.916 0-10.812-4.815-10.812-10.813 0-2.619 1.012-5.156 2.701-7.098l15.21 15.21c-2.032 1.688-4.48 2.7-7.1 2.7Zm8.11-3.714-15.209-15.21c1.942-1.688 4.39-2.7 7.099-2.7 5.915 0 10.811 4.814 10.811 10.812 0 2.619-1.012 5.156-2.7 7.098Z" fill="#E84C4F"/></g></g></g><defs><clipPath id="a"><path fill="#fff" transform="translate(15 12.16)" d="M0 0h51.121v59.11H0z"/></clipPath><clipPath id="b"><path fill="#fff" transform="translate(19.719 5.403)" d="M0 0h48.259v62.737H0z"/></clipPath><clipPath id="c"><path fill="#fff" transform="translate(19.719 16.02)" d="M0 0h42.32v55.016H0z"/></clipPath></defs></svg>
